src/16/actions/object-rotate-left.svg

<svg xmlns="http://www.w3.org/2000/svg" viewBox="0 0 16 16">
  <defs id="defs3051">
    <style type="text/css" id="current-color-scheme">
      .ColorScheme-Text {
        color:#5d656b;
      }
      </style>
  </defs>
 <path style="fill:currentColor;fill-opacity:1;stroke:none" 
     d="M 7.828125 1.671875 L 6.8789062 2.6210938 L 5 4.5 L 6.8789062 6.3789062 L 7.828125 7.328125 L 8.5351562 6.6210938 L 7.5859375 5.671875 L 6.9140625 5 L 11 5 L 11 4 L 6.9140625 4 L 7.5859375 3.328125 L 8.5351562 2.3789062 L 7.828125 1.671875 z M 12.5 5 C 12.22386 5 12 5.22386 12 5.5 C 12 5.77614 12.22386 6 12.5 6 C 12.77614 6 13 5.77614 13 5.5 C 13 5.22386 12.77614 5 12.5 5 z M 5.53125 6.5625 L 2 10.09375 L 5.90625 14 L 9.4375 10.46875 L 5.53125 6.5625 z M 13.5 8 C 13.22386 8 13 8.22386 13 8.5 C 13 8.77614 13.22386 9 13.5 9 C 13.77614 9 14 8.77614 14 8.5 C 14 8.22386 13.77614 8 13.5 8 z M 12.5 11 C 12.22386 11 12 11.22386 12 11.5 C 12 11.77614 12.22386 12 12.5 12 C 12.77614 12 13 11.77614 13 11.5 C 13 11.22386 12.77614 11 12.5 11 z M 9.5 12 C 9.22386 12 9 12.22386 9 12.5 C 9 12.77614 9.22386 13 9.5 13 C 9.77614 13 10 12.77614 10 12.5 C 10 12.22386 9.77614 12 9.5 12 z "
     class="ColorScheme-Text"
     />
</svg>

<svg xmlns="http://www.w3.org/2000/svg" viewBox="0 0 16 16"><path d="M7.828 1.672l-.95.95L5 4.5l1.879 1.879.95.95.706-.708-.95-.95L6.916 5H11V4H6.914l.672-.672.95-.95-.708-.706zM12.5 5a.5.5 0 1 0 0 1 .5.5 0 0 0 0-1zM5.531 6.563L2 10.092 5.906 14l3.532-3.531L5.53 6.563zM13.5 8a.5.5 0 1 0 0 1 .5.5 0 0 0 0-1zm-1 3a.5.5 0 1 0 0 1 .5.5 0 0 0 0-1zm-3 1a.5.5 0 1 0 0 1 .5.5 0 0 0 0-1z" fill="currentColor" color="#5d656b"/></svg>
